X:369
T:Contentment is Wealth
R:jig
S:Kevin Finucane & Con Moynihan
H:See also #11
Z:id:hn-jig-369
M:6/8
L:1/8
K:Edor
~g3 edB|BAB EFG|~F3 DFA|dAF AFD|~g3 edB|BAB EFG|~B3 AFA|GED E3:|
|:~e3 Beg|bge gfe|~d3 Adf|afd fed|~e3 Beg|bge gfe|B/c/dB AFA|GED E3:|

